X:279
T:General Wemyss of Wemyss
R:Strathspey
C:Neil Gow
B:The Athole Collection
M:C|
L:1/8
K:C
e/f/|g>ce>c d>G B2|F<cE<c d<D De/f/|g>ce>c d<G B2|c<G A>F E<CC:|
F|E<GCE c<G F>E|F<cE<c d<D D>F|E<GC<E c<GA<F|c<GA<F E<C C>F|
E<GC<E c<G F>E|F<cE<c d<D D>F|E<GC<E e>cd>B|c>GA>F E<CC||

